images/indikatorenset/4302.svg

<?xml version="1.0" standalone="no"?><!DOCTYPE svg PUBLIC "-//W3C//DTD SVG 1.1//EN" "http://www.w3.org/Graphics/SVG/1.1/DTD/svg11.dtd"><svg xmlns:xlink="http://www.w3.org/1999/xlink" version="1.1" class="highcharts-root" style="font-family:arial;font-size:9pt;" xmlns="http://www.w3.org/2000/svg" width="485" height="415"><desc>Created with Highstock 5.0.14</desc><defs><clipPath id="highcharts-piv9zye-7"><rect x="0" y="0" width="432" height="254" fill="none"></rect></clipPath><clipPath id="highcharts-piv9zye-8"><rect x="0" y="0" width="432" height="254" fill="none"></rect></clipPath></defs><rect fill="#fbfbfb" class="highcharts-background" x="0" y="0" width="485" height="415" rx="0" ry="0"></rect><rect fill="none" class="highcharts-plot-background" x="43" y="90" width="432" height="254"></rect><g class="highcharts-label" style="cursor:pointer;" transform="translate(10,451)"><text x="0" y="0"><tspan>&gt; Indikator-Details</tspan></text></g><g class="highcharts-pane-group"></g><g class="highcharts-grid highcharts-xaxis-grid "><path fill="none" class="highcharts-grid-line" d="M 81.5 90 L 81.5 344" opacity="1"></path><path fill="none" class="highcharts-grid-line" d="M 121.5 90 L 121.5 344" opacity="1"></path><path fill="none" class="highcharts-grid-line" d="M 160.5 90 L 160.5 344" opacity="1"></path><path fill="none" class="highcharts-grid-line" d="M 199.5 90 L 199.5 344" opacity="1"></path><path fill="none" class="highcharts-grid-line" d="M 238.5 90 L 238.5 344" opacity="1"></path><path fill="none" class="highcharts-grid-line" d="M 278.5 90 L 278.5 344" opacity="1"></path><path fill="none" class="highcharts-grid-line" d="M 317.5 90 L 317.5 344" opacity="1"></path><path fill="none" class="highcharts-grid-line" d="M 356.5 90 L 356.5 344" opacity="1"></path><path fill="none" class="highcharts-grid-line" d="M 395.5 90 L 395.5 344" opacity="1"></path><path fill="none" class="highcharts-grid-line" d="M 435.5 90 L 435.5 344" opacity="1"></path><path fill="none" class="highcharts-grid-line" d="M 474.5 90 L 474.5 344" opacity="1"></path><path fill="none" class="highcharts-grid-line" d="M 42.5 90 L 42.5 344" opacity="1"></path></g><g class="highcharts-grid highcharts-yaxis-grid "><path fill="none" stroke="#e6e6e6" stroke-width="1" class="highcharts-grid-line" d="M 43 344.5 L 475 344.5" opacity="1"></path><path fill="none" stroke="#e6e6e6" stroke-width="1" class="highcharts-grid-line" d="M 43 293.5 L 475 293.5" opacity="1"></path><path fill="none" stroke="#e6e6e6" stroke-width="1" class="highcharts-grid-line" d="M 43 242.5 L 475 242.5" opacity="1"></path><path fill="none" stroke="#e6e6e6" stroke-width="1" class="highcharts-grid-line" d="M 43 192.5 L 475 192.5" opacity="1"></path><path fill="none" stroke="#e6e6e6" stroke-width="1" class="highcharts-grid-line" d="M 43 141.5 L 475 141.5" opacity="1"></path><path fill="none" stroke="#e6e6e6" stroke-width="1" class="highcharts-grid-line" d="M 43 89.5 L 475 89.5" opacity="1"></path></g><g class="highcharts-grid highcharts-yaxis-grid "></g><rect fill="none" class="highcharts-plot-border" x="43" y="90" width="432" height="254"></rect><g class="highcharts-axis highcharts-xaxis "><path fill="none" class="highcharts-axis-line" stroke="#ccd6eb" stroke-width="1" d="M 43 344.5 L 475 344.5"></path></g><g class="highcharts-axis highcharts-yaxis "><path fill="none" class="highcharts-axis-line" d="M 43 90 L 43 344"></path></g><g class="highcharts-axis highcharts-yaxis "><path fill="none" class="highcharts-axis-line" d="M 475 90 L 475 344"></path></g><g class="highcharts-series-group"><g class="highcharts-series highcharts-series-0 highcharts-column-series highcharts-color-undefined " transform="translate(43,90) scale(1 1)" clip-path="url(#highcharts-piv9zye-8)"><rect x="9" y="59" width="10" height="196" fill="#FF8028" class="highcharts-point"></rect><rect x="48" y="62" width="10" height="193" fill="#FF8028" class="highcharts-point"></rect><rect x="88" y="69" width="10" height="186" fill="#FF8028" class="highcharts-point"></rect><rect x="127" y="78" width="10" height="177" fill="#FF8028" class="highcharts-point"></rect><rect x="166" y="85" width="10" height="170" fill="#FF8028" class="highcharts-point"></rect><rect x="205" y="90" width="10" height="165" fill="#FF8028" class="highcharts-point"></rect><rect x="245" y="97" width="10" height="158" fill="#FF8028" class="highcharts-point"></rect><rect x="284" y="101" width="10" height="154" fill="#FF8028" class="highcharts-point"></rect><rect x="323" y="105" width="10" height="150" fill="#FF8028" class="highcharts-point"></rect><rect x="362" y="110" width="10" height="145" fill="#FF8028" class="highcharts-point"></rect></g><g class="highcharts-markers highcharts-series-0 highcharts-column-series highcharts-color-undefined " transform="translate(43,90) scale(1 1)" clip-path="none"></g><g class="highcharts-series highcharts-series-1 highcharts-column-series highcharts-color-undefined " transform="translate(43,90) scale(1 1)" clip-path="url(#highcharts-piv9zye-8)"><rect x="60" y="60" width="10" height="195" fill="#B375AB" class="highcharts-point"></rect><rect x="99" y="66" width="10" height="189" fill="#B375AB" class="highcharts-point"></rect><rect x="139" y="79" width="10" height="176" fill="#B375AB" class="highcharts-point"></rect><rect x="178" y="84" width="10" height="171" fill="#B375AB" class="highcharts-point"></rect><rect x="217" y="91" width="10" height="164" fill="#B375AB" class="highcharts-point"></rect><rect x="256" y="95" width="10" height="160" fill="#B375AB" class="highcharts-point"></rect><rect x="296" y="101" width="10" height="154" fill="#B375AB" class="highcharts-point"></rect><rect x="335" y="102" width="10" height="153" fill="#B375AB" class="highcharts-point"></rect><rect x="374" y="111" width="10" height="144" fill="#B375AB" class="highcharts-point"></rect><rect x="414" y="113" width="10" height="142" fill="#B375AB" class="highcharts-point"></rect></g><g class="highcharts-markers highcharts-series-1 highcharts-column-series highcharts-color-undefined " transform="translate(43,90) scale(1 1)" clip-path="none"></g></g><text x="10" text-anchor="start" class="highcharts-title" style="color:#000000;font-size:1.1em;font-weight:bold;fill:#000000;" y="20"><tspan>CO2-Emissionen Neuzulassungen</tspan></text><text x="10" text-anchor="start" class="highcharts-subtitle" style="color:#000000;font-size:0.9em;fill:#000000;" y="38"><tspan>Gramm pro Kilometer</tspan></text><g class="highcharts-legend" transform="translate(10,40)"><rect fill="none" class="highcharts-legend-box" rx="0" ry="0" x="0" y="0" width="323" height="38" visibility="visible"></rect><g><g><g class="highcharts-legend-item highcharts-column-series highcharts-color-undefined highcharts-series-0" transform="translate(12,7)"><text x="21" style="color:#333333;font-size:1em;font-weight:normal;cursor:pointer;fill:#333333;" text-anchor="start" y="15"><tspan>Kanton Basel-Stadt</tspan></text><rect x="2" y="4" width="12" height="12" fill="#FF8028" class="highcharts-point"></rect></g><g class="highcharts-legend-item highcharts-column-series highcharts-color-undefined highcharts-series-1" transform="translate(156.328125,7)"><text x="21" y="15" style="color:#333333;font-size:1em;font-weight:normal;cursor:pointer;fill:#333333;" text-anchor="start"><tspan>Kanton Basel-Landschaft</tspan></text><rect x="2" y="4" width="12" height="12" fill="#B375AB" class="highcharts-point"></rect></g></g></g></g><g class="highcharts-axis-labels highcharts-xaxis-labels "><text x="62.63636363636364" style="color:#000000;cursor:default;font-size:0.9em;fill:#000000;" text-anchor="middle" transform="translate(0,0)" y="363" opacity="1">2006</text><text x="101.9090909090909" style="color:#000000;cursor:default;font-size:0.9em;fill:#000000;" text-anchor="middle" transform="translate(0,0)" y="363" opacity="1">2007</text><text x="141.1818181818182" style="color:#000000;cursor:default;font-size:0.9em;fill:#000000;" text-anchor="middle" transform="translate(0,0)" y="363" opacity="1">2008</text><text x="180.45454545454547" style="color:#000000;cursor:default;font-size:0.9em;fill:#000000;" text-anchor="middle" transform="translate(0,0)" y="363" opacity="1">2009</text><text x="219.72727272727272" style="color:#000000;cursor:default;font-size:0.9em;fill:#000000;" text-anchor="middle" transform="translate(0,0)" y="363" opacity="1">2010</text><text x="259" style="color:#000000;cursor:default;font-size:0.9em;fill:#000000;" text-anchor="middle" transform="translate(0,0)" y="363" opacity="1">2011</text><text x="298.2727272727273" style="color:#000000;cursor:default;font-size:0.9em;fill:#000000;" text-anchor="middle" transform="translate(0,0)" y="363" opacity="1">2012</text><text x="337.54545454545456" style="color:#000000;cursor:default;font-size:0.9em;fill:#000000;" text-anchor="middle" transform="translate(0,0)" y="363" opacity="1">2013</text><text x="376.8181818181818" style="color:#000000;cursor:default;font-size:0.9em;fill:#000000;" text-anchor="middle" transform="translate(0,0)" y="363" opacity="1">2014</text><text x="416.0909090909091" style="color:#000000;cursor:default;font-size:0.9em;fill:#000000;" text-anchor="middle" transform="translate(0,0)" y="363" opacity="1">2015</text><text x="455.3636363636364" style="color:#000000;cursor:default;font-size:0.9em;fill:#000000;" text-anchor="middle" transform="translate(0,0)" y="363" opacity="1">2016</text></g><g class="highcharts-axis-labels highcharts-yaxis-labels "><text x="28" style="color:#000000;cursor:default;font-size:0.9em;fill:#000000;" text-anchor="end" transform="translate(0,0)" y="349" opacity="1"><tspan>0</tspan></text><text x="28" style="color:#000000;cursor:default;font-size:0.9em;fill:#000000;" text-anchor="end" transform="translate(0,0)" y="298" opacity="1"><tspan>50</tspan></text><text x="28" style="color:#000000;cursor:default;font-size:0.9em;fill:#000000;" text-anchor="end" transform="translate(0,0)" y="247" opacity="1"><tspan>100</tspan></text><text x="28" style="color:#000000;cursor:default;font-size:0.9em;fill:#000000;" text-anchor="end" transform="translate(0,0)" y="196" opacity="1"><tspan>150</tspan></text><text x="28" style="color:#000000;cursor:default;font-size:0.9em;fill:#000000;" text-anchor="end" transform="translate(0,0)" y="145" opacity="1"><tspan>200</tspan></text><text x="28" style="color:#000000;cursor:default;font-size:0.9em;fill:#000000;" text-anchor="end" transform="translate(0,0)" y="95" opacity="1"><tspan>250</tspan></text></g><g class="highcharts-axis-labels highcharts-yaxis-labels "></g><text x="10" class="highcharts-credits" text-anchor="start" style="cursor:default;color:#000000;font-size:0.8em;fill:#000000;" y="400"><tspan>Quelle: Kantonspolizei Basel-Stadt, Motorfahrzeugkontrolle; Motorfahrzeugkontrolle Basel-Landschaft</tspan></text></svg>

<svg class="highcharts-root" xmlns="http://www.w3.org/2000/svg" width="485" height="415" font-family="arial" font-size="12">
    <defs>
        <clipPath id="a">
            <path fill="none" d="M0 0h432v254H0z"/>
        </clipPath>
    </defs>
    <rect fill="#fbfbfb" class="highcharts-background" width="485" height="415" rx="0" ry="0"/>
    <path fill="none" class="highcharts-plot-background" d="M43 90h432v254H43z"/>
    <text transform="translate(10 451)" class="highcharts-label" cursor="pointer">
        <tspan>&gt; Indikator-Details</tspan>
    </text>
    <g class="highcharts-grid highcharts-xaxis-grid">
        <path fill="none" class="highcharts-grid-line" d="M81.5 90v254m40-254v254m39-254v254m39-254v254m39-254v254m40-254v254m39-254v254m39-254v254m39-254v254m40-254v254m39-254v254M42.5 90v254"/>
    </g>
    <g class="highcharts-grid highcharts-yaxis-grid">
        <path fill="none" stroke="#e6e6e6" class="highcharts-grid-line" d="M43 344.5h432m-432-51h432m-432-51h432m-432-50h432m-432-51h432m-432-52h432"/>
    </g>
    <path fill="none" class="highcharts-plot-border" d="M43 90h432v254H43z"/>
    <g class="highcharts-axis highcharts-xaxis">
        <path fill="none" class="highcharts-axis-line" stroke="#ccd6eb" d="M43 344.5h432"/>
    </g>
    <g class="highcharts-axis highcharts-yaxis">
        <path fill="none" class="highcharts-axis-line" d="M43 90v254"/>
    </g>
    <g class="highcharts-axis highcharts-yaxis">
        <path fill="none" class="highcharts-axis-line" d="M475 90v254"/>
    </g>
    <g class="highcharts-series-group">
        <g class="highcharts-series highcharts-series-0 highcharts-column-series highcharts-color-undefined" transform="translate(43 90)" clip-path="url(#a)">
            <path fill="#FF8028" class="highcharts-point" d="M9 59h10v196H9zm39 3h10v193H48zm40 7h10v186H88zm39 9h10v177h-10zm39 7h10v170h-10zm39 5h10v165h-10zm40 7h10v158h-10zm39 4h10v154h-10zm39 4h10v150h-10zm39 5h10v145h-10z"/>
        </g>
        <g class="highcharts-series highcharts-series-1 highcharts-column-series highcharts-color-undefined" transform="translate(43 90)" clip-path="url(#a)">
            <path fill="#B375AB" class="highcharts-point" d="M60 60h10v195H60zm39 6h10v189H99zm40 13h10v176h-10zm39 5h10v171h-10zm39 7h10v164h-10zm39 4h10v160h-10zm40 6h10v154h-10zm39 1h10v153h-10zm39 9h10v144h-10zm40 2h10v142h-10z"/>
        </g>
    </g>
    <text x="10" class="highcharts-title" y="20" color="#000" font-size="1.1em" font-weight="700">
        <tspan>CO2-Emissionen Neuzulassungen</tspan>
    </text>
    <text x="10" class="highcharts-subtitle" y="38" color="#000" font-size=".9em">
        <tspan>Gramm pro Kilometer</tspan>
    </text>
    <g class="highcharts-legend" transform="translate(10 40)">
        <rect fill="none" class="highcharts-legend-box" rx="0" ry="0" width="323" height="38"/>
        <g class="highcharts-legend-item highcharts-column-series highcharts-color-undefined highcharts-series-0">
            <text x="21" y="15" color="#333" font-size="1em" font-weight="400" cursor="pointer" fill="#333" transform="translate(12 7)">
                <tspan>Kanton Basel-Stadt</tspan>
            </text>
            <path fill="#FF8028" class="highcharts-point" d="M14 11h12v12H14z"/>
        </g>
        <g class="highcharts-legend-item highcharts-column-series highcharts-color-undefined highcharts-series-1">
            <text x="21" y="15" color="#333" font-size="1em" font-weight="400" cursor="pointer" fill="#333" transform="translate(156.328 7)">
                <tspan>Kanton Basel-Landschaft</tspan>
            </text>
            <path fill="#B375AB" class="highcharts-point" d="M158.328 11h12v12h-12z"/>
        </g>
    </g>
    <g class="highcharts-axis-labels highcharts-xaxis-labels" text-anchor="middle" color="#000" cursor="default" font-size=".9em">
        <text x="62.636" y="363">
            2006
        </text>
        <text x="101.909" y="363">
            2007
        </text>
        <text x="141.182" y="363">
            2008
        </text>
        <text x="180.455" y="363">
            2009
        </text>
        <text x="219.727" y="363">
            2010
        </text>
        <text x="259" y="363">
            2011
        </text>
        <text x="298.273" y="363">
            2012
        </text>
        <text x="337.545" y="363">
            2013
        </text>
        <text x="376.818" y="363">
            2014
        </text>
        <text x="416.091" y="363">
            2015
        </text>
        <text x="455.364" y="363">
            2016
        </text>
    </g>
    <g class="highcharts-axis-labels highcharts-yaxis-labels" text-anchor="end" color="#000" cursor="default" font-size=".9em">
        <text x="28" y="349">
            <tspan>0</tspan>
        </text>
        <text x="28" y="298">
            <tspan>50</tspan>
        </text>
        <text x="28" y="247">
            <tspan>100</tspan>
        </text>
        <text x="28" y="196">
            <tspan>150</tspan>
        </text>
        <text x="28" y="145">
            <tspan>200</tspan>
        </text>
        <text x="28" y="95">
            <tspan>250</tspan>
        </text>
    </g>
    <text x="10" class="highcharts-credits" y="400" cursor="default" color="#000" font-size=".8em">
        <tspan>Quelle: Kantonspolizei Basel-Stadt, Motorfahrzeugkontrolle; Motorfahrzeugkontrolle Basel-Landschaft</tspan>
    </text>
</svg>
